X:1
T:Title
%%score { 1 | ( 2 3 ) }
L:1/8
M:4/4
K:Bb
V:1 treble nm="Grand Piano"
V:2 bass 
V:3 bass 
V:1
 z4 z2[Q:1/4=86] [B,D][CE] | [DF]<[DB] [_DA][DG] [=DG]<[DF] [DF][DF] |[M:3/4] F<A G>F [DB]2 | %3
[M:1/4] [DB][DB] |[M:4/4] [GB]>[GB] [FA][EG] [DF]<[DB] [FB][FB] |[M:7/8] [FA]<[Fc][GB]>[EG] F3 | %6
[M:1/4] FF |[M:4/4] c>c BA [DB]<[DF] [DF][DF] |[M:7/8] [EG][FA][GB] [Gc] [^Fd]3 |[M:1/4] [Fd][Fd] | %10
[M:17/16] [Gc]<[GB][FA][EG][DF]<[DB][Ge]3/2[Ge] |[M:7/8] d<Bc>[DB] [DB]3 |] %12
V:2
 z4 z2 [B,,F,][B,,F,] | [B,,B,]<[B,,F,] [B,,=E,][B,,E,] [B,,F,]<[B,,B,] [B,,B,][B,,B,] | %2
[M:3/4] z2 z z/ E/- E/ z/ z |[M:1/4] [B,,B,][B,,B,] | %4
[M:4/4] [E,B,]>[E,B,] [E,B,][E,B,] [B,,B,]<[B,,F,] [D,B,][D,B,] | %5
[M:7/8] [C,C]<[C,A,][C,C]>[C,B,] [F,A,C]3 |[M:1/4] [F,A,E][F,A,E] | %7
[M:4/4] [F,A,E]>[F,A,E] [F,B,D][F,CE] [B,,B,]<[B,,B,] [B,,B,][B,,B,] | %8
[M:7/8] [E,B,][E,B,][E,B,] [E,G,] [D,A,]3 |[M:1/4] [D,A,][D,A,] | %10
[M:17/16] [E,G,]<[E,G,][E,B,][E,B,][B,,B,]<[B,,B,][E,B,]3/2[E,B,] | %11
[M:7/8] [F,B,F]<[F,B,D][F,A,E]>[B,,F,] [B,,F,]3 |] %12
V:3
 x8 | x8 |[M:3/4] [F,A,E]<[F,CE] [F,B,E]>[F,A,] [B,,F,]2 |[M:1/4] x2 |[M:4/4] x8 |[M:7/8] x7 | %6
[M:1/4] x2 |[M:4/4] x8 |[M:7/8] x7 |[M:1/4] x2 |[M:17/16] x17/2 |[M:7/8] x7 |] %12

